icons/linear-ele-other-unbrella.svg

<svg xmlns="http://www.w3.org/2000/svg" width="32px" height="32px" viewBox="0 0 32 32" version="1.1">
    <title>linear-ele-other-unbrella</title>
    <g id="linear-ele-other-unbrella" stroke-width="1" fill-rule="evenodd">
        <path d="M16,3 C23.7319865,3 30,9.2680135 30,17 C30,17.5522847 29.5522847,18 29,18 L18,18 L18,25 C18,27.209139 16.209139,29 14,29 C11.790861,29 10,27.209139 10,25 C10,24.4477153 10.4477153,24 11,24 C11.5522847,24 12,24.4477153 12,25 C12,26.1045695 12.8954305,27 14,27 C15.1045695,27 16,26.1045695 16,25 L16,18 L3,18 C2.44771525,18 2,17.5522847 2,17 C2,9.2680135 8.2680135,3 16,3 Z M16,5 C9.78042405,5 4.66599302,9.73168789 4.06007801,15.7916926 L4.041,16 L27.958,16 L27.939922,15.7916926 C27.34394,9.83103223 22.3860506,5.15549429 16.3049748,5.00379986 L16,5 Z" id="&#24418;&#29366;" fill-rule="nonzero" />
    </g>
</svg>

<svg xmlns="http://www.w3.org/2000/svg" viewBox="0 0 32 32"><path fill="currentColor" d="M16 3c7.732 0 14 6.268 14 14a1 1 0 0 1-1 1H18v7a4 4 0 1 1-8 0 1 1 0 0 1 2 0 2 2 0 1 0 4 0v-7H3a1 1 0 0 1-1-1C2 9.268 8.268 3 16 3m0 2C9.78 5 4.666 9.732 4.06 15.792L4.041 16h23.917l-.018-.208C27.344 9.83 22.386 5.155 16.305 5.004z"/></svg>
